X:1
T:Stabat Mater
T:Stabat Mater
T:Claudio Saracini
T:Source : Le terze Musiche per cantar e sonar---Venetia---A.Vincenti---1620. Editor : André Vierendeels (12/02/16).
T:Notes : Original clefs : C1, F4 Editorial accidentals above the staff Figures av-bove the BC are notated in originbal print The original print was damaged (perhaps during WW II), necessitating editorial addenda mm 31+32, mm87+88, m141, mm187+188, m233. Dedicated to Sig. Ferante Chasale
T:©
T:©
T:©
T:©
T:©
T:©
T:©
T:©
T:©
T:©
T:©
T:©
T:©
T:©
T:©
T:©
T:©
T:©
T:©
C:Claudio Saracini
Z:©
%%score 1 2
L:1/8
Q:1/4=128
M:4/4
K:C
V:1 treble nm="Soprano" snm="S"
V:2 bass nm="BC" snm="BC"
V:1
 d8- | d3 ^F FFFF | G8 | G8 | e8- | e3 ^G GGGG | A8 | A8 | E3 E ^F4 | ^F4 z2 AA | TA4 ^A4 | %11
w: Sta-|* bat Ma- ter do- lo-|ro-|sa,|sta-|* bat Ma- ter do- lo-|ro-|sa,|iux- ta cru-|cem la- cri-|mo- *|
 B4 z2 BB | ^c6 e2 | ^G4 A4 | z4 c2 c2 | c3 c c4 | z2 c2 ^c4 | ^c4 c3 c | d3 d z2 dd | d4 ^d2 e2- | %20
w: sa, dum pen-|de- bat|Fi- lius.|Cu- ius|a- ni- mam|ge- men-|tem, con- tri-|sta- tem et do-|len- * tem,|
 e4 E2 ^F2 | ^G6 A2 | TB6 B2 | A8 | A3 E EEEE | E3 D DE/F/ G/A/B/c/ | d8- | d4 ^c4 | d3 ^G GGGG | %29
w: _ per trans-|i- vit|gla- di-|us.|O quam tri- stis et af-|flic- ta, fu- * * * * * *||* it,|O quam tri- stis et af-|
 ^G3 G GGBB | B2 B2 ^G4 | B4 B2 ^c2 | d6 e/d/e/c/ | d6 c2 | c8 | d8 | c8 | B6 B/c/d/c/ | A6 G2 | %39
w: flic- ta, fu- it il- la|be- ne dic-|ta Ma- ter|U- ni- * * *|ge- ni-|ti,|Ma-|ter|U- ni- * * *|ge- ni-|
 G8 | z2 B4 E2 | E4 E4 | z2 FF F4- | ^F4 F4 | z _B BB/B/ B/B/B/B/ B/B/B/B/ | B/B/B/B/ B/B/B/B/ B4 | %46
w: ti!|Quae mae-|re- bat|et do- le-|* bat,|et tre- me- * * * * * * * * *|* * * * * * * * bat|
 c6 E2 | F4 F4 | A6 ^F2 | G4 G4 | _E6 E2 | E4 E4 | z G D6 | C8 | A6 E2 | ^F4 F4 | d6 A2 | B4 B4 | %58
w: cum vi-|de- bat,|cum vi-|de- bat,|na- ti|poe- nas|in- cly-|ti.|Quis est|ho- mo,|quis est|ho- mo|
 z e c2 c3 c | ^c4 c4 | d4 d4 | _BB B>B BB>BF | A4 A4 | E6 E2 | F6 F2 | ^F2 F2 F3 F | ^G2 G2 G4 | %67
w: qui non fle- ret|Chri- sti|Ma- trem|si vi- de- ret in tan- to sup-|pli- cio?|Quis non|pos- set|con- tri- sta- ri,|pi- a Ma-|
 ^G4 G3 G | A4 A4 | z ^c c3 c e2 | TB8 | A8 | c4 FFFF | F4 F4 | A6 G2 | ^F8 | ^F8 | B6 A2 | ^G8 | %79
w: ter con- tem-|pla- ri|do- len- tem cum|Fi-|lio?|Pro pec- ca- tis suae|gen- tis|vi- dit|Je-|sum,|vi- dit|Je-|
 ^G8 | dd d4 d2 | z2 dd d4- | ^d4 d2 F2 | F4 F4 | B3 B d2 c2 | B4 B4 | c3 c G2 G2 | A4 A4 | E6 E2 | %89
w: sum|in tor- men- tis,|et fla- gel-|* lis sub-|di- tum.|Vi- dit su- um|dul- cem|na- tum mo- ri-|en- do|de- so-|
 D4 D4 | D3 D G3 C | D6 D2 | C8 | z2 GG A4 | A4 z2 cc | d4 d4 | A6 G2 | G4 G4 | ^F6 G2 | A4 A4 | %100
w: la- tum,|dum e- mi- sit|spi- ri-|tum.|E- ia Ma-|ter,, fons a-|mo- ris,|me sen-|ti- re|vim do-|lo- ris,|
 c6 z E | E6 E2 | D4- ^D4- | D2 ^D2 D4 | B6 z c | c4 c4 | c4- ^c4- | c2 ^c2 c4 | z4 d4 | %109
w: fac, ut|te- cum|lu- *|* ge- am.|Fac, ut|te- cum|lu- *|* ge- am.|Fac|
 z ^F G/F/G/A/ B/A/B/c/ d/G/A/B/ | A/A/A/A/ A/A/A/A/ A4 | B2 c2 d4- | d4 c4 | %113
w: ut ar- * * * * * * * * * * *|* * * * * * * de- at|cor _ me-|* um,|
 z2 FG/A/ D/E/F/G/ A/B/c/d/ | A/B/c/d/ c/d/G A4 | G4 z2 dc | B4 B4 | c6 G2 | A4 A4 | z2 ed ^c4 | %120
w: cor _ _ _ _ _ _ _ _ _ _|_ _ _ _ _ _ _ me-|um in a-|man- do|Chri- stum|De- um,|in a- man-|
 ^c2 d4 A2 | B4 B4 | z G G4 FA | ^C3 D/E/ D/E/C/F/ E/F/G/A/ | E8 | D8 | z8 | G8- | G4 G4 | %129
w: do Chri- stum|De- um,|ut si- bi com-|pla- * * * * * * * * * *|ce-|am.||San-|* cta|
 GGGA B4 | B4 BBBc | d4 d4 | z2 ^FF FFFG | A4 A4 |[K:F] A/G/A/B/ c4 d2- | d2 =B4 c2 | d6 d2 | c8 | %138
w: Ma- ter, i- stud a-|gas, Ma- ter i- stud|a- gas,|cru- ci- fi- xi fi- ge|pla- gas|cor _ _ _ _ di|_ me- o|va- li-|de.|
 z cc c2 cGA | B4 B4 | z GG G2 _EDC | =B,4 B,4 | G4 A3 _E | _E6 DD | %144
w: Tu- i na- ti vul- ne-|ra- ti,|tam di- gna- ti pro me|pa- ti,|poe- * nas|me- cum di-|
 D/E/D/E/ F/G/F/G/ E/F/E/F/ D/E/D/E/ | =B,8 | C8 |[K:C] c3 ^F FFFF | G8- | ^G4 G4 | %150
w: vi- * * * * * * * * * * * * * * *||de.|Fac me ve- re te- cum|fle-|* re,|
 EF/G/ A/B/c/d/ e3 B | BBBB c4- | ^c4 c4 | z4 z2 dA | B4 B4 | z2 e^c d4- | d4 d4 | BABc d4- | %158
w: fac _ _ _ _ _ _ _ me|ve- re te- cum fle-|* re,|cru- ci-|fi- xo|con- do- le-|* re,|do- * * * *|
 d2 c2 B2 B2 | A6 A2 | G8 | _B3 B B4 | A2 A4 G2 | G>A G>A G>A GA/B/ | G8 ||[K:F] B3 A c4- | %166
w: * nec e- go|vi- xer-|ro.|Jux- ta cru-|cem te- cum|sta- * * * * * * * *|re,|te ju- ben-|
 c2 c2 G3 A | ^F8 | ^F8 | d3 _e/d/ c/B/A/G/ ^F2 | G2 A/B/c/B/ A/G/^F/G/ A/D/E/F/ | %171
w: * ter so- ci-|a-|re,|in plan- * * * * * ctu|de- si- * * * * * * * * * * *|
 G/A/B/c/ A/B/c/d/ A/B/c/B/ A2- | A6 A2 | G8 | B2 c2 d3 d | G6 d2 | ^F4 F4 | z2 AA d4 | %178
w: * * * * * * * * * * * * de-|* ri|o.|Vir- go vir- gi-|num prae-|cla- ra,|mi- hi jam|
 _e2 G^F G4- | G8 | G8 | c6 A2 | A4 A4 | G4- ^G3 G | A8 |[K:C] A6 ^C2 | ^C4 C2 CC | %187
w: non sis a- ma-||ra:|Fac me|te- cum|plan- * ge-|re.|Fac ut|por- tem Chri- sti|
 DE/F/ GA D/E/F/G/ B,2 | ^C8 | z2 d4 ^F2 | ^F4 F2 FF | G8 | G8 | z2 e4 ^G2 | ^G4 G2 GG | A8 | A8 | %197
w: mor- * * * * * * * * *|tem,|fac ut|por- tem Chri- sti|mor-|tem,|fac ut|por- tem Chri- sti|mor-|tem,|
 d4 d2 d2 | d4 ^F4 | G8 | G8 | z2 c2 c4- | c4 D3 D | D6 D2 | C8 | z2 A4 A2 | d4 d4 | c6 G2 | %208
w: pas- sio- nis|e- ius|for-|tem,|et pla-|* gas re|co- le-|re.|Fac me|pla- gis|vul- ne-|
 A4 A4 | ^F6 F2 | G6 D2 | D6 D2 | E4 E4 | G2 A2 B2 c2 | Td8 | c8 | z ee e3 cc | %217
w: ra- tis|cru- ce,|fac in-|e- bri-|a- ri|ob a- mo- rem|Fi-|lij.|in- flam- ma- tus et|
 c/c/c/c/ c/c/c/c/ ^G2 GG | A4 A4- | A2 EE ^F4- | F4 ^F4 | z2 c4 G2 | %222
w: ac- * * * cen- * * * sus, per te|Vir- go,|_ sim de- fen-|* sus|in di-|
 E>^F E/F/G/A/ D/C/D/E/ F/E/F/G/ | A/G/A/B/ ^c/A/B/A/ B/c/d/c/ d/B/c/d/ | %224
w: e ju- di- * * * * * * * * * * *||
 e/A/B/^c/ d/E/F/G/ A/D/E/F/ G/A/B/c/ | A/B/^c/d/ c/d/B/c/ d/e/d/e/ c2 | d8 | e6 ^G2 | A4 A4 | %229
w: |* * * * * * * * * * * * ci-|i.|Fac me|cru- ce|
 F3 D E/F/E/F/ D2 | E4 E4 | A6 D2 | D4 D4 | d2 ^F2 G/A/G/A/ F2 | G4 G4 | c2 c4 BA | %236
w: cu- sto- * * * * *|di- ri|mor- tem|Chri- sti|_ _ _ _ _ _ _|mi- ri,|con- fo- ve- ri|
 B/c/d/c/ B/A/^G/A/ B/E/F/G/ A/B/c/d/ | e/B/B/B/ B/B/B/B/ B/B/B/B/ B/B/B/B/ | A8 |[M:3/2] ^c8 d4 | %240
w: gra- * * * * * * * * * * * * * * *||tia,|Quan- do|
 e8 G4 | A8 A4 | B8 B4 | e8 d4 | c8 d4 | B8 B4 | A8 A4 |[M:2/2] B2 c2 d4- | d4 c4 | d8 | c8 | %251
w: cor- pus|mo- ri-|e- tur,|fac ut|a- ni-|mae do-|ne- tur|Pa- ra- di|_ si|glo-|ria,|
 ^F2 G2 A4- | A4 d4 | A8 | G8 |[M:3/2] E8 E4 | A8 A4 | D8 D4 | E8 E4 |[M:2/2] d8 | GGGA BBBc | %261
w: Pa- ra- di-|* so|glo-|ria,|quan- do|cor- pus|mo- ri-|e- tur,|fac|a- ni- mae do- ne- tur Pa- ra-|
 d8- | d8 | d8- | d4 G4 | A8- | A8 | G8- | G8 |] %269
w: di|_||* si|glo-||ria.|_|
V:2
"^b" G,,8 | D,6 C,2 | B,,8 | B,,8 | E,,8 | E,6 D,2 | ^C,8 | ^C,8 | ^C,4 D,4- | D,4 ^F,4- | %10
 F,4 ^A,4 | ^G,8 | ^C,8 | E,4 A,,4 | F,,8- | F,,8 | F,,3 G,, A,,4 | A,6 G,2 | ^F,4 D,4- | %19
 D,2 C,2 B,,2 ^C,2- |"^b" C,8 | E,8- | E,8 | A,,8 | ^C,8 | _B,,8- | B,,8 | A,,8 | ^F,,2 ^G,,6 | %29
 ^G,8- | G,4 E,4 | E,4 G,4 | G,,2 A,,2 B,,2 E,2 | G,8 | C,8 | G,,2 A,,2 B,,2 G,,2 | %36
 C,2 D,2 E,2 C,2 | G,2 E,2 B,,4 | D,8 | G,,8 | G,,4 ^C,4- | C,8 | _B,,6 C,2 | D,4 D,,4 |"^b" G,,8 | %45
"^-natural" G,,4 G,,4 |"^-natural" C,8 | F,,8 | D,8 | G,,8 | _E,4 D,4 | C,8 | G,,8 | C,8 | %54
 F,,2 G,,2 A,,4 | D,4 D,,4 | D,8 | G,,8 | C,8 |"^#" A,,8 | ^F,,8 | _B,,4 B,,4 | A,,8 | A,,8 | %64
 F,,4 F,4 | ^F,8 | E,8 | E,6 D,2 | ^C,8 | ^C,8 | E,8 | A,,8 | F,8 | F,,8 | F,4 E,4 | D,4 D,,4 | %76
 D,8 | G,2 F,2 E,4- | E,8- | E,8 | ^F,8- | F,6 C,2 |"^#" B,,8 | B,,8 | G,,8 | G,,8 | C,4 C,2 B,,2 | %87
 A,,8 | A,,8 | _B,,8- | B,,4 G,,4- | G,,8 | C,8 | C,4 F,,4 | F,,8 | _B,,8 | D,2 C,2 B,,4- | B,,8 | %98
 D,4 _B,,4 | A,,8 |"^-natural" A,,8 | C,8 |"^#""^b" B,,4 B,,4- | B,,8 | B,,4 G,,4 | C,8 | %106
 C,2 B,,2 A,,4- | A,,8 | A,2 G,2 ^F,4 | D,2 G,,2- G,,4- | G,,4 D,4 | G,,8 | C,8 | D,8 | D,,8 | %115
 G,,8 | G,8 | C,8 | A,,8 | A,,4 A,4- | A,2 ^F,2 F,4 | G,4 G,,4 | G,,4 A,,4 | A,,8- | A,,8 | D,8 | %126
 D,2 E,2 ^F,2 D,2 | G,4 E,2 B,,2 | C,2 B,,A,, G,,4 | G,,8 | G,,4 G,,G,,G,,A,, | B,,B,,B,,C, D,4 | %132
 D,4 D,D,D,B,, | A,,8 |[K:F] F,,4 G,,4- | G,,4 G,4- | G,8 | C,8 |"^b" C,8 |"^b" G,,8 | C,6 B,,A,, | %141
"^-natural" G,,8 | G,,2 C,6 | C,4 G,,4 | G,,8- | G,,8 | C,8 |[K:C] C,2 D,4 C,2 | B,,4 A,,4 | %149
 ^G,,8 | ^G,,8- | G,,4 C,2 B,,2 |"^#" A,,8 | A,2 G,2 ^F,4 | ^G,8 | A,4 ^F,4- | F,4 ^F,4 | %157
 G,4 G,,4- | G,,2 A,,2 B,,2 C,2 | D,8 | G,,8 |"^b" G,,8- | G,,8- | G,,8- | G,,8 ||[K:F] G,4 F,4 | %166
 F,,4 _E,4 | D,8 | D,,8 | D,3 C,3 D,2- | D,4 D,4 | D,,8 | D,8 | G,,4 G,4 | B,2 A,2 G,2 F,2 | _E,8 | %176
"^#" D,8 | ^F,8 | C,4 =B,,4- | B,,8- | B,,8 | C,4 A,,4 | G,,2 A,,4 B,,2 | C,2 D,2 E,4 | A,,8 | %185
[K:C]"^#" A,,8- | A,,8 | _B,,8 |"^#" A,,8 | D,8 | D,6 C,2 | B,,8- | B,,8 | E,8- | E,6 D,2 | ^C,8- | %196
 C,8 | G,,8 | D,8 | G,4 B,,2 C,2 | G,,8 | A,,4 F,,4 | G,,8- | G,,8 | C,8 | F,,4 F,4 | ^F,8 | %207
 F,4 C,4 | F,,8 | D,4 C,4 | B,,8- | B,,8 | C,8 | G,,4 G,,2 A,,2 | B,,2 C,2 G,,4 | C,8 | A,,8- | %217
 A,,4 E,2 D,2 | ^C,8 | ^C,4 D,4- | D,4 D,,4 | C,8- | C,3/2D,3/2D,, D,,4 | A,,8- |"^#" A,,8- | %225
 A,,8 | D,8 | ^C,8- | C,8 | D,4 _B,,4 | A,,8 | ^F,,8- | F,,8 | D,8 | G,,8 | C,2 D,2 E,4- | E,8 | %237
 E,8 | A,,8 |[M:3/2] A,,8 D,4 | C,8 E,4 | D,8 D,4 | G,,8 G,,4 | C,8 D,4 | E,8 D,4 | E,8 E,4 | %246
 A,,8 A,,4 |[M:2/2] G,,4 G,,2 A,,2 | B,,4 E,4 | G,8 | C,8 | D,6 E,2 | ^F,8 | D,8 | G,,8 | %255
[M:3/2] A,,8 A,,4 | F,,8 F,,4 | G,,8 G,,4 | C,8 C,4 |[M:2/2] G,8 | G,,8 | G,G,,B,,C, D,E,^F,D, | %262
 G,G,,B,,C, D,C,B,,A,, | G,,A,,B,,G,, F,,E,,D,,C,, | D,,8 | D,8- | D,8 | G,,8- | G,,8 |] %269

